!!!!SEGMENT: pl-sa--400-a-viii-40--004-003_pugnani-gaetano--trio-in-d-allegro.krn
!!!cenid: 17xx:2031
!!!COM: Pugnani, Gaetano
!!!COM-rismID: pe30002608
!!!CDT: 1731/11/27-1798/07/15
!!!CNT: Italian
!!!OPR: Trio in D
!!!OTL: Allegro
!!!OMV: 003
!!!PDT:
!!!AGN: Secular
!!!YEC: Copyright 2022 Narodowy Instytut Fryderyka Chopina (https://polishscores.org)
!!!YEM: License CC-BY-4.0 (https://creativecommons.org/licenses/by/4.0)
!!!SMS-siglum: PL-SA
!!!SMS-shelfmark: 400/A VIII 40
!!!SMS-shelfwork: 004-003 M
!!!SMS-variant:
!!!SMS-altvar:
!!!NIFC-rismSourceID: 1001104664
!!!NIFC-rismChildID: 1001104664
!!!NIFC-islandoraID: none
!!!URL-pdf-islandora:
!!!URL-scan: https://bc.bdsandomierz.pl/dlibra/publication/1703/edition/1671/content @EN{Scan in the Sandomierz Diocese Digital Library} @PL{Skany w portalu Cyfrowa Biblioteka Diecezjalna w Sandomierzu}
!!!IIIF:
!!!ONB-nifc: UWAGA: No 4to. Części: 1. bez podanego tempa, 2. Andante, 3. Allegro
!!!OMD: Allegro
!!!AIN: 1 cbass 2 violn
!!!key: D
**kern	**kern	**kern
*part3	*part2	*part1
*staff3	*staff2	*staff1
*I"Baſso.	*I"Violino 2do	*I"Violino 1mo
*I'b	*I'vl 2	*I'vl 1
*Icbass	*Ivioln	*Ivioln
*ICstr	*ICstr	*ICstr
*IGcont	*	*
*clefF4	*clefG2	*clefG2
*k[f#c#]	*k[f#c#]	*k[f#c#]
*D:	*D:	*D:
*M3/4	*M3/4	*M3/4
*>[A,A,B,B]	*>[A,A,B,B]	*>[A,A,B,B]
=1	=1	=1
*>A	*>A	*>A
*	*2\right	*2\right
!LO:TX:t=P:problem:zgodnie z RISM "b part missing."	!	!
2.ryy	4d/	4.dd\
.	4r	.
.	.	8a/L
.	4r	8f#/
.	.	8d/J
=2	=2	=2
2.ryy	4r	4A/
.	4a/	(8.ee\L
.	.	16cc#\Jk)
.	4g/	(8.ee\L
.	.	16cc#\Jk)
=3	=3	=3
2.ryy	4f#/	4.dd\
.	4r	.
.	.	8a/L
.	4r	8f#/
.	.	8d/J
=4	=4	=4
2.ryy	4r	4A/
.	4a/	(8.ee\L
.	.	16cc#\Jk)
.	4g/	(8.ee\L
.	.	16cc#\Jk)
=5	=5	=5
.	.	8qqcc#/
2.ryy	2f#/	4dd\
.	.	(8.ff#\L
.	.	16dd\Jk)
.	4d/	(8.ff#\L
.	.	16dd\Jk)
=6	=6	=6
.	.	8qqff#/
2.ryy	2c#/	4ee\
.	.	(8.gg\L
.	.	16ee\Jk)
.	4A/	(8.gg\L
.	.	16ee\Jk)
=7	=7	=7
.	.	8qqgg/
2.ryy	8d/L	2.ff#\
.	8c#X/	.
.	8d/	.
.	8e/	.
.	8f#/	.
.	8g#X/J	.
=8	=8	=8
2.ryy	2a\	2ee\
.	4r	4r
=9	=9	=9
2.ryy	4.dd\	4d/
.	.	4r
.	8a/L	.
.	8f#/	4r
.	8d/J	.
!	!	!LO:LB:g=original
=10	=10	=10
2.ryy	4A/	4r
.	(16ee\KL	4a/
.	8.cc#\J)	.
.	(16ee\KL	4g/
.	8.cc#\J)	.
=11	=11	=11
2.ryy	4.dd\	4f#/
.	.	4r
.	8a/L	.
.	8f#/	4r
.	8d/J	.
=12	=12	=12
2.ryy	4A/	4r
.	(16ee\KL	4a/
.	8.cc#\J)	.
.	(16ee\KL	4g/
.	8.cc#\J)	.
=13	=13	=13
.	8qqcc#/	.
2.ryy	4dd\	2f#/
.	(16ff#\KL	.
.	8.dd\J)	.
.	(16ff#\KL	4e/
.	8.dd\J)	.
!	!LO:LB:g=original	!
=14	=14	=14
.	8qqdd/	.
2.ryy	4ee\	2c#/
.	(16gg\KL	.
.	8.ee\J)	.
.	(16gg\KL	4A/
.	8.ee\J)	.
=15	=15	=15
.	8qqgg/	.
2.ryy	2.ff#\	8d/L
.	.	8c#/
.	.	8d/
.	.	8e/
.	.	8f#/
.	.	8g#X/J
=16	=16	=16
*	*^	*
2.ryy	4ee\	4ryy	4a/
.	4cc#/	4a\	2aa\
.	4cc#/	4a\	.
=17	=17	=17	=17
2.ryy	4cc#/	4a\	4aa\
*	*	*	*Xtuplet
!	!	!	!LO:TUP:a:problem:klamra łukowa
.	4cc#/	4a\	12ee\L
.	.	.	12ff#\
.	.	.	12gg\J
.	.	.	8qgg/
.	4cc#/	4a\	8.ff#\L
.	.	.	16ee\Jk
=18	=18	=18	=18
2.ryy	4dd/	4a\	4ff#\
.	4dd/	4a\	2ff#\
.	4dd/	4a\	.
=19	=19	=19	=19
2.ryy	4dd/	4a\	4ff#\
!	!	!	!LO:TUP:a:problem:klamra łukowa
.	4dd/	4a\	12dd\L
.	.	.	12ee\
.	.	.	12ff#\J
.	.	.	8qqgg/
!	!	!	!LO:TX:t=P:problem:8ee 8dd poprawione na 8ff# 8ee
.	4dd/	4a\	8ff#\L
.	.	.	8ee\J
=20	=20	=20	=20
*	*	*	*^
2.ryy	4cc#/	4a\	4cc#/	4a\
.	2aa\	2ryy	4cc#/	4a\
.	.	.	4cc#/	4a\
*	*v	*v	*	*
!	!	!LO:LB:g=original	!
=21	=21	=21	=21
2.ryy	4aa\	4dd/	4a\
*	*Xtuplet	*	*
!	!LO:TUP:a:problem:klamra łukowa	!	!
.	12ee\L	4dd/	4a\
.	12ff#\	.	.
.	12gg\J	.	.
.	8qqgg/	.	.
.	8.ff#\L	4dd/	4a\
.	16ee\Jk	.	.
=22	=22	=22	=22
!	!	!LO:TX:t=P:problem:brak taktu	!
2.ryy	4ff#\	2.ryy	2.ryy
.	2ff#\	.	.
.	.	.	.
=23	=23	=23	=23
2.ryy	4ff#\	4dd/	4a\
!	!LO:TUP:a:problem:klamra łukowa	!	!
.	12dd\L	4dd/	4a\
.	12ee\	.	.
.	12ff#\J	.	.
.	8qqff#/	.	.
.	8.ee\L	4dd/	4a\
.	16dd\Jk	.	.
*	*	*v	*v
=24	=24	=24
*	*	*^
2.ryy	4ee 4cc# 4a/	4cc#/	4a\
!	!	!LO:TUP:a:problem:klamra łukowa	!
.	4r	12cc#\L	12ryy
.	.	12dd\	12ryy
.	.	12ee\J	12ryy
.	.	8qqee/	.
.	4r	8.dd\L	8ryy
.	.	.	8ryy
.	.	16cc#\Jk	.
*	*	*v	*v
=25	=25	=25
*	*^	*
2.ryy	4a/	4f#\	4dd\
!	!	!	!LO:TUP:a:problem:klamra łukowa
.	4r	4ryy	12dd\L
.	.	.	12ee\
.	.	.	12ff#\J
.	.	.	8qqff#/
.	4r	4ryy	8.ee\L
!	!	!	!LO:N:vis=8
.	.	.	16dd\Jk
*	*v	*v	*
=26	=26	=26
2.ryy	4c#/	4ee\
!	!	!LO:TUP:a:problem:klamra łukowa
.	12cc#\L	12ee\L
.	12dd\	12ff#\
.	12ee\J	12gg\J
.	8qqee/	8qqgg/
.	8.dd\L	8.ff#\L
.	16cc#\Jk	16ee\Jk
!	!LO:LB:g=original	!
=27	=27	=27
2.ryy	4dd\	8.ff#\L
.	.	16bb\Jk
.	.	8qqbb/
.	4ee\	2gg#X\
.	8.e/L	.
.	16d/Jk	.
=28	=28	=28
!	!LO:TX:t=P:problem:mixed beam	!
2.ryy	8c#/L	2.aa\
.	8cc#|\	.
.	(8ee\	.
.	8cc#\	.
.	8dd\	.
.	8b\J)	.
=29	=29	=29
2.ryy	8a|\L	2.aa\
.	8dd|\	.
.	(8ff#\	.
.	8dd\	.
.	8ff#\	.
.	8dd\J)	.
=30	=30	=30
2.ryy	2cc#\	(8aa\L
.	.	8ggn\
.	.	8gg\
.	.	8ff#\
.	4cc#\	8ff#\
.	.	8ee#X\J)
=31	=31	=31
2.ryy	(8dd\L	(8ff#\L
.	8cc#\)	8een\)
.	(8cc#\	(8ee\
.	8b\)	8dd\)
.	(8b\	(8dd\
.	8a\J)	8cc#\J)
!	!	!LO:LB:g=original
=32	=32	=32
!	!	!LO:TUP:a:problem:klamra łukowa
2.ryy	4d/	12b\L
.	.	12cc#\
.	.	12dd\J
.	.	8qqa/
.	8e/L	2g#X/
.	8f#/	.
.	8e/	.
.	8d/J	.
=33	=33	=33
!	!LO:TX:t=P:problem:mixed beam	!
2.ryy	8c#/L	2.aa\
.	8cc#|\	.
.	(8ee\	.
.	8cc#\	.
.	8ee\	.
.	8cc#\J)	.
=34	=34	=34
2.ryy	8a'\L	2.aa\
.	8dd'\	.
.	(8ff#\	.
.	8dd\	.
.	8ff#\	.
.	8dd\J)	.
=35	=35	=35
2.ryy	2cc#\	(8aa\L
.	.	8ggnX\)
.	.	(8gg\
.	.	8ff#\)
.	4cc#\	(8ff#\
.	.	8ee#X\J)
=36	=36	=36
2.ryy	8dd\L	(8ff#\L
.	(8cc#\	8een\)
.	8cc#\)	(8ee\
.	(8b\	8dd\)
.	8b\)	(8dd\
.	8a\J	8cc#\J)
=37	=37	=37
!	!	!LO:TUP:a:problem:klamra łukowa
2.ryy	4d/	12b\L
.	.	12cc#\
.	.	12dd\J
.	4e/	4cc#\
!	!	!LO:TX:t=P:problem:niejednoznaczny zapis ozdobnika [przyjęto mordent górny]:global
.	4e/	4bM\
=38	=38	=38
2.ryy	4a\	8cc#\L
.	.	8a\
.	4r	8ee\
.	.	8cc#\
.	4r	8aa\
.	.	8ee\J
=39	=39	=39
2.ryy	4d/	8ff#\L
.	.	8dd\
.	4e/	8cc#\
.	.	8aa\
.	4e/	8b\
.	.	8gg#X\J
!	!LO:LB:g=original	!
=40	=40	=40
2.ryy	4a\	8cc#\L
.	.	8a\
.	4r	8ee\
.	.	8cc#\
.	4r	8aa\
.	.	8ee\J
=41	=41	=41
2.ryy	4d/	8ff#\L
.	.	8dd\
.	4e/	8cc#\
.	.	8aa\
.	4e/	8b\
.	.	8gg#X\J
!	!	!LO:LB:g=original
=42	=42	=42
*	*	*^
2.ryy	2a 2e 2A/	2aa/	2a\
.	4r	4r	4ryy
*	*	*v	*v
=43:|!|:	=43:|!|:;	=43:|!|:;
*>B	*>B	*>B
*	*^	*
*	*tremolo	*tremolo	*
2.ryy	8cc#/L	8a\L	4.ee\
.	8cc#/	8a\	.
.	8cc#/	8a\	.
.	8cc#/	8a\	8a\L
.	8cc#/	8a\	8cc#\
.	8cc#/J	8a\J	8ee\J
=44	=44	=44	=44
.	.	.	8qqee/
*	*	*tremolo	*
2.ryy	8dd/L	8a\L	4.ff#\
.	8dd/	8a\	.
.	8dd/	8a\	.
.	8dd/	8a\	8gg#X\L
.	8dd/	8a\	8aa\
.	8dd/J	8a\J	8ff#\J
*	*Xtremolo	*Xtremolo	*
=45	=45	=45	=45
.	.	.	8qqff#/
*	*	*	*^
2.ryy	4.cc#/	4.a\	4.ee\	4.ryy
.	8a\L	8ryy	8cc#/L	8a\L
.	8cc#\	8ryy	8cc#/	8a\
.	8ee\J	8ryy	8cc#/J	8a\J
*	*v	*v	*	*
=46	=46	=46	=46
.	8qqee/	.	.
2.ryy	4.ff#\	8dd/L	8a\L
.	.	8dd/	8a\
.	.	8dd/	8a\
.	8gg#X\L	8dd/	8a\
.	8aa\	8dd/	8a\
!	!LO:SIC:v:o=8ee\J	!	!
.	8ff#\J	8dd/J	8a\J
=47	=47	=47	=47
2.ryy	4ee\	4cc#/	4a\
.	4ff#\	2aa\	2ryy
.	4ee\	.	.
*	*	*v	*v
=48	=48	=48
2.ryy	8dd#X\L	8.aa\L
.	8ccn\	.
.	.	16dd#X\Jk
.	8b\	2dd#\
.	8cc\	.
.	8b\	.
.	8a\J	.
=49	=49	=49
2.ryy	8g/L	(4ee\
.	8e/	.
.	8d#X/	4ff#\
.	8B/	.
.	8e/	4gg\)
.	8B/J	.
=50	=50	=50
.	.	16qqff#/LL
.	.	16qqgg/JJ
2.ryy	8f#/L	(4aa\
.	8B/	.
.	8e/	4gg\
.	8B/	.
.	8d#X/	4ff#\)
.	8B/J	.
=51	=51	=51
!	!	!LO:TUP:a:problem:klamra łukowa
2.ryy	4e/	12gg\L
.	.	12ff#\
.	.	12ee\J
.	4ee\	2gg\
.	4ddn\	.
!	!	!LO:LB:g=original
=52	=52	=52
2.ryy	8cc#/L	8.gg\L
.	8b-X/	.
.	.	16cc#\Jk
.	8a/	2cc#t\
.	8b-/	.
.	8a/	.
.	8g/J	.
!	!LO:LB:g=original	!
=53	=53	=53
2.ryy	8f#/L	(4dd\
.	8d/	.
.	8c#/	4ee\
.	8A/	.
.	8d/	4ff#\)
.	8A/J	.
=54	=54	=54
.	.	16qqee/LL
.	.	16qqff#/JJ
2.ryy	8e/L	4gg\
.	8A/	.
.	8d/	4ff#\
.	8A/	.
.	8c#/	4ee\
.	8A/J	.
=55	=55	=55
*	*tremolo	*
!	!	!LO:TUP:a:problem:klamra łukowa
2.ryy	8d/L	12ff#\L
.	.	12ee\
.	8d/	.
.	.	12dd\J
.	8d/	4ff#\
.	8d/	.
.	8d/	4r
.	8d/J	.
=56	=56	=56
!	!	!LO:TUP:a:problem:klamra łukowa
2.ryy	8A/L	12ee\L
.	.	12dd\
.	8A/	.
.	.	12cc#\J
.	8A/	4ee\
.	8A/	.
.	8A/	4r
.	8A/J	.
*	*Xtremolo	*
=57	=57	=57
!	!	!LO:TUP:a:problem:klamra łukowa
2.ryy	8B/L	12dd\L
.	.	12cc#\
.	8B/	.
.	.	12b\J
.	8B/	8.dd\L
.	8B/	.
.	.	16dd\K
.	.	8qqdd/
.	8e/	8.cc#\
.	8e/J	.
.	.	16b\Jk
=58	=58	=58
2.ryy	8f#/L	(4a#X\
.	8f#/	.
.	8a#X/	4cc#\)
.	8f#/	.
.	8cc#/	8r
.	8a#/J	16r
.	.	16ee\
=59	=59	=59
2.ryy	8b\L	4dd\
.	8dd\	.
.	8qqdd/	.
.	8cc#\	4ff#\
.	8b\	.
.	8a#X\	4r
.	8b\J	.
=60	=60	=60
2.ryy	8f#/L	4a#X\
.	8f#/	.
.	8a#X/	4cc#\
.	8f#/	.
.	8cc#/	8r
.	8a#/J	16r
.	.	16ee\
=61	=61	=61
2.ryy	8b\L	(4dd\
.	8dd\	.
.	8qdd/	.
.	8cc#\	4ff#\)
.	8b\	.
.	8a#X\	4r
.	8b\J	.
!	!	!LO:LB:g=original
=62	=62	=62
!	!LO:TX:t=P:problem:mixed beam	!
2.ryy	8B/L	4dd#X\
.	8b\	.
.	8dd#X\	4ff#\
.	8b\	.
.	8ff#\	8r
.	8dd#\J	16r
.	.	16aa\
=63	=63	=63
2.ryy	8ee\L	4gg\
.	8gg\	.
.	8qgg/	.
.	8ff#\	4bb\
.	8ee\	.
.	8dd#X\	4r
.	8ee\J	.
!	!LO:LB:g=original	!
=64	=64	=64
!	!LO:TX:t=P:problem:mixed beam	!
2.ryy	8B/L	4dd#X\
.	8b\	.
.	8dd#X\	4ff#\
.	8b\	.
.	8ff#\	8r
.	8dd#\J	16r
!	!	!LO:N:vis=8
.	.	16aa\
=65	=65	=65
2.ryy	8ee\L	4gg\
.	8gg\	.
.	8ff#\	4bb\
.	8ee\	.
.	8dd#X\	4r
.	8ee\J	.
=66	=66	=66
2.ryy	8A/L	(4cc#\
.	8a/	.
.	8cc#/	4ee\)
.	8a/	.
.	8ee/	8r
.	8cc#/J	16r
.	.	16gg\
=67	=67	=67
2.ryy	8dd\L	4ff#\
.	8ff#\	.
.	8qqff#/	.
.	8ee\	4aa\
.	8dd\	.
.	8cc#\	4r
.	8dd\J	.
=68	=68	=68
2.ryy	8A/L	4cc#\
.	8a/	.
.	8cc#/	4ee\
.	8a/	.
.	8ee/	8r
.	8cc#/J	16r
.	.	16gg\
=69	=69	=69
!	!LO:TX:t=P:problem:mixed beam	!
2.ryy	8dd\L	2.ff#t\
.	8d/	.
.	8d/	.
.	8e/	.
.	8f#/	.
.	8g#X/J	.
=70	=70	=70
2.ryy	8a/L	2ee\
.	8b/	.
.	8a/	.
.	8g/	.
.	8f#/	4r
.	8e/J	.
=71	=71	=71
*	*^	*
2.ryy	4a/	4f#\	4.dd\
.	4r	4ryy	.
.	.	.	8a/L
.	4r	4ryy	8f#/
.	.	.	8d/J
*	*v	*v	*
=72	=72	=72
2.ryy	4r	4A/
!	!	!LO:N:vis=8
.	4a/	(8.ee\L
.	.	16cc#\Jk)
.	4g/	(8.ee\L
.	.	16cc#\Jk)
!	!	!LO:LB:g=original
=73	=73	=73
2.ryy	4f#/	4.dd\
.	4r	.
.	.	8a/L
.	4r	8f#/
.	.	8d/J
=74	=74	=74
2.ryy	4c#/	4A/
.	(16ee\KL	(8.gg\L
!	!LO:SIC:v:o=8.dd\J)	!
.	8.cc\J)	.
.	.	16ee\Jk)
.	(16ee\KL	(8.gg\L
.	8.cc#\J)	.
.	.	16ee\Jk)
!	!LO:LB:g=original	!
=75	=75	=75
2.ryy	4dd\	4ff#\
!	!	!LO:TUP:a:problem:klamra łukowa
.	4r	12ff#\L
.	.	12gg\
.	.	12aa\J
.	4r	8.gg\L
.	.	8qqgg/
.	.	16ff#\Jk
=76	=76	=76
2.ryy	4b\	4gg\
!	!	!LO:TUP:a:problem:klamra łukowa
.	4r	12gg\L
.	.	12aa\
.	.	12bb\J
.	.	8qqbb/
.	4r	8.aa\L
.	.	16gg\Jk
=77	=77	=77
2.ryy	4f#/	4aa\
!	!LO:TUP:a:problem:klamra łukowa	!LO:TUP:a:problem:klamra łukowa
.	12ff#\L	12aa\L
.	12gg\	12bb\
.	12aa\J	12cccn\J
.	8qqaa/	.
.	8.gg\L	8bb\L
.	.	8aa#iX\J
.	16ff#\Jk	.
=78	=78	=78
2.ryy	4gg\	8bb\L
.	.	8eee\J
.	.	8qqddd/
.	4aa\	2ccc#\
.	8.a/L	.
.	16g/Jk	.
=79	=79	=79
!	!LO:TX:t=P:problem:mixed beam	!
2.ryy	8f#/L	2.ddd\
.	8ff#\	.
.	8aa\	.
.	8ff#\	.
.	8aa\	.
.	8ff#\J	.
=80	=80	=80
2.ryy	8dd\L	2.ddd\
.	8gg\	.
.	8bb\	.
.	8gg\	.
.	8bb\	.
.	8gg\J	.
=81	=81	=81
2.ryy	2ff#\	(8ddd\L
.	.	8cccn\)
.	.	(8ccc\
.	.	8bb\)
.	4ff#\	(8bb\
.	.	8aa#X\J)
=82	=82	=82
2.ryy	(8gg\L	8bb\L
.	8ff#\)	8aanX\
.	(8ff#\	8aa\
.	8ee\)	8gg\
.	(8ee\	8gg\
.	8dd\J)	8ff#\J
!	!	!LO:LB:g=original
=83	=83	=83
2.ryy	4g/	12ee\L
.	.	12ff#\
.	.	12gg\J
.	4.a/	4ff#\
.	.	4ee\
.	8g/	.
=84	=84	=84
2.ryy	(8f#/L	2.ddd\
.	8ff#\)	.
.	(8aa\	.
.	8ff#\)	.
.	(8aa\	.
.	8ff#\J)	.
=85	=85	=85
2.ryy	8dd'\L	2.ddd\
.	8gg'\	.
.	(8bb\	.
.	8gg\	.
.	8bb\	.
.	8gg\J)	.
=86	=86	=86
2.ryy	2ff#\	8ddd\L
.	.	8cccn\
.	.	8ccc\
.	.	8bb\
.	4ff#\	8bb\
!	!	!LO:SIC:v:o=8aa\J
.	.	8aa#\J
!	!LO:LB:g=original	!
=87	=87	=87
!	!LO:SIC:v:o=(8ff#\L	!
2.ryy	(8gg\L	(8bb\L
!	!LO:SIC:v:o=8ee\)	!
.	8ff#\)	8aan\)
!	!LO:SIC:v:o=(8ee\	!
.	(8ff#\	(8aa\
!	!LO:SIC:v:o=8dd\)	!
.	8ee\)	8gg\)
!	!LO:SIC:v:o=(8dd\	!
.	(8ee\	(8gg\
!	!LO:SIC:v:o=8cc#\J)	!
.	8dd\J)	8ff#\J)
=88	=88	=88
2.ryy	4g/	12ee\L
.	.	12ff#\
.	.	12gg\J
.	4a/	4ff#\
.	4A/	4eeT\
=89	=89	=89
2.ryy	4d/	(8ff#\L
.	.	8dd\)
.	4r	(8aa\
.	.	8ff#\)
.	4r	(8ddd\
.	.	8aa\J)
=90	=90	=90
2.ryy	4g/	(8bb\L
.	.	8gg\)
.	4a/	8ff#\
.	.	8ddd\
.	4A/	8ee'\
.	.	8ccc#'\J
=91	=91	=91
2.ryy	4d/	(8ff#\L
.	.	8dd\)
.	4r	(8aa\
.	.	8ff#\)
.	4r	(8ddd\
.	.	8aa\J)
=92	=92	=92
2.ryy	4g/	(8bb\L
.	.	8gg\
.	4a/	8ff#\
.	.	8ddd\)
.	4A/	8ee'\
.	.	8ccc#'\J
=93	=93	=93
2.ryy	4ff# 4a 4d/	4ddd 4ff# 4d/
.	4r	4r
.	4r	4r
=:|!	=:|!;	=:|!;
*-	*-	*-
!!!system-decoration: [(s1,s2,s3)]
!!!RDF**kern: > = above
!!!RDF**kern: < = below
!!!RDF**kern: | = vertical stroke
!!!RDF**kern: i = editorial accidental
!!!ENC: Katarzyna Serwa
!!!END: 2021-10-28
!!!ENC: Krzysztof Stępień
!!!END: 2021-05-28
